X:200
T: Cuillinn ui Chaoimh
S: "Treoir"
Z: B.Black
M: 6/8
L: 1/8
R: jig
K: D
F/A/ | BdB BAF | Add dFA | BdB BAF | AFE E2 F/A/ |
B3 BAF | Add dAF | G3 FAF |1 EDE D2 :|2 EDE D3 ||
DFA d3 | dfd ecA | g3 fdB | AFA B3 |
Adf a2 a | baf a2 f | gfe fdB | AFA B2 g ||
fdd d3 | dfd ecA | g3 fdB | AFA B3 |
Adf a3 | baf a2 f | gfe fdB | AFA B3 ||
